X:105
T:Petite THO4.105, La
M:6/8
L:1/8
Z:vmp. Peter Dunk 2010/11.from a transcription by Fynn Titford-Mock 2007
B:Thompson's Compleat Collection of 200 Favourite Country Dances Volume IV.
Q:3/8=110
K:C
cGF EGc|cdc dBG|cGF EGc|cdB c3::gec ceg|a2 f gec|
gec ceg|ag^f g3|a=fd gec|fdc BAG|cGF EGc|cdB c3:|

